frontend/public/svg/e-commerce/shopping-cart-2.svg

<svg width="153" height="149" viewBox="0 0 153 149" fill="none" xmlns="http://www.w3.org/2000/svg">
<path d="M56.2959 100.5C57.8711 106.62 59.3774 112.462 60.9789 118.677C62.4405 118.677 63.9815 118.688 65.5226 118.677C83.1536 118.543 100.785 118.412 118.415 118.283C120.77 118.269 123.13 118.438 125.48 118.617C126.485 118.7 127.475 118.909 128.427 119.24C132.111 120.5 132.741 123.269 130.038 126.117C129.816 126.352 129.607 126.6 129.382 126.855C130.888 127.995 132.325 129.222 133.686 130.531C138.501 135.704 137.529 142.595 131.455 146.245C126.557 149.189 121.56 148.961 116.824 145.917C111.646 142.591 110.659 136.027 114.391 130.848C115.165 129.773 116.106 128.82 117.279 127.454C102.405 127.187 87.9187 126.767 72.6168 127.162C76.2923 129.897 78.558 132.668 78.512 136.704C78.4976 139.434 77.4113 142.049 75.4863 143.986C71.2392 148.401 62.9117 148.37 57.9511 143.996C53.194 139.802 53.6194 133.808 59.3032 126.902C54.5875 126.517 52.3551 123.329 51.1507 119.419C49.8013 115.042 48.9264 110.519 47.7877 106.073C45.3697 96.636 42.6906 87.2589 40.524 77.7643C36.8105 61.487 33.4061 45.1442 29.8763 28.8257C29.1655 25.5401 28.4048 22.2626 27.8063 18.9559C27.7154 18.2946 27.4302 17.6751 26.9869 17.176C26.5436 16.6769 25.9621 16.3208 25.3161 16.1527C20.0542 14.2172 14.8192 12.2094 9.58821 10.1925C7.37209 9.40051 5.19837 8.4947 3.07547 7.47902C0.71659 6.27593 -0.0356972 4.34564 0.831325 2.55647C1.65043 0.865081 3.26646 0.345203 5.78286 1.15053C11.0165 2.82485 16.2232 4.58329 21.447 6.28714C24.0067 7.12132 26.5605 7.96478 29.1452 8.70644C32.0862 9.55049 33.9809 11.2594 34.7495 14.333C36.6529 21.9406 38.6876 29.5156 40.6625 37.1081C40.9973 38.3932 41.3136 39.6837 41.6805 41.1375C44.7075 41.1375 47.604 41.1662 50.4997 41.1301C53.8674 41.0875 57.2351 40.9183 60.6021 40.9333C63.4992 40.9478 65.0725 42.0432 65.1965 43.8724C65.3278 45.7404 63.5701 47.248 60.6369 47.3301C56.3753 47.4502 52.1045 47.3136 47.8383 47.2913C46.4042 47.2841 44.9695 47.2913 42.9775 47.2913L54.4273 92.1722H123.686L143.256 45.8886C139.515 45.7153 136.215 45.5637 132.913 45.4081C131.12 45.3241 129.311 45.3557 127.538 45.1187C125.069 44.7906 123.929 43.6369 123.957 41.8464C123.984 40.1517 124.909 39.0812 127.378 38.8803C131.622 38.5344 135.892 38.4384 140.152 38.3958C142.276 38.3741 144.41 38.9032 146.528 38.8316C150.657 38.6918 152.277 41.6639 152.11 46.6455C151.963 47.9861 151.566 49.287 150.938 50.481C147.412 58.357 143.777 66.1819 140.281 74.0697C137.557 80.217 134.871 86.3866 132.394 92.6362C131.259 95.3167 129.585 97.7353 127.475 99.7417C126.653 100.498 125.629 100.999 124.528 101.186C122.656 101.528 120.755 101.686 118.851 101.654C100.999 101.301 83.1464 100.881 65.2982 100.504C62.4077 100.447 59.5126 100.5 56.2959 100.5ZM127.65 137.37C127.62 135.676 125.422 133.581 123.609 133.516C122.217 133.466 120.759 135.251 120.734 137.034C120.711 138.764 122.322 140.076 124.432 140.045C126.302 140.018 127.676 138.875 127.65 137.37ZM66.6474 139.183C67.4232 138.586 68.5409 138.128 68.9617 137.311C69.5845 136.098 68.9617 134.923 67.7468 134.226C67.0799 133.823 66.3731 133.489 65.6387 133.229C64.418 132.826 63.1999 132.643 62.5402 134.18C61.9016 135.668 62.2364 137.275 63.5247 138.013C64.5342 138.483 65.5782 138.873 66.6474 139.183Z" fill="black"/>
<path d="M89.5079 57.1721C89.5079 55.3652 89.5296 54.2554 89.504 53.1475C89.1483 37.8964 88.7919 22.6451 88.4342 7.39359C88.3685 6.27388 88.4066 5.15069 88.5464 4.03788C88.8037 2.46267 89.695 1.33494 91.4218 1.24043C92.1569 1.14695 92.9012 1.33286 93.5057 1.76152C94.1108 2.19019 94.5329 2.83029 94.6891 3.55523C95.0048 4.51191 95.2181 5.49978 95.3251 6.5017C95.8206 14.11 96.2512 21.7226 96.7217 29.3322C97.1982 37.0547 97.6918 44.776 98.2011 52.4963C98.2589 53.3699 98.4991 54.231 98.7597 55.6815C100.302 53.9147 101.539 52.5189 102.752 51.1039C104.651 48.89 106.532 46.6618 108.426 44.444C108.718 44.1034 109.024 43.7732 109.345 43.4634C111.408 41.4904 113.752 41.1471 115.331 42.5766C117.079 44.1597 116.995 46.6119 114.978 48.8467C110.246 54.0915 105.456 59.2856 100.702 64.5107C99.7973 65.5037 98.9402 66.5395 98.0712 67.5641C96.1678 69.8074 94.1633 70.2839 91.5045 69.0481C90.6887 68.674 89.9129 68.2191 89.1883 67.6901C82.7713 62.9429 76.6844 57.8173 71.439 51.7717C70.6028 50.7308 69.9235 49.5726 69.4233 48.334C69.0775 47.6757 68.9849 46.9136 69.1621 46.1916C69.34 45.4695 69.7758 44.8375 70.3875 44.4149C70.95 44.095 71.5709 43.8912 72.2134 43.8155C72.856 43.7399 73.5077 43.794 74.1286 43.9745C75.5142 44.4858 76.6733 45.7183 77.814 46.7659C81.1147 49.7968 84.3511 52.8974 87.6315 55.9507C88.2287 56.3994 88.8555 56.8074 89.5079 57.1721Z" fill="black"/>
</svg>

<svg xmlns="http://www.w3.org/2000/svg" width="153" height="149" fill="none" viewBox="0 0 153 149"><path fill="#000" d="M56.296 100.5c1.575 6.12 3.081 11.962 4.683 18.177 1.462 0 3.002.011 4.544 0q26.446-.2 52.892-.394c2.355-.014 4.715.155 7.065.334 1.005.083 1.995.292 2.947.623 3.684 1.26 4.314 4.029 1.611 6.877-.222.235-.431.483-.656.738a48 48 0 0 1 4.304 3.676c4.815 5.173 3.843 12.064-2.231 15.714-4.898 2.944-9.895 2.716-14.631-.328-5.178-3.326-6.165-9.89-2.433-15.069.774-1.075 1.715-2.028 2.888-3.394-14.874-.267-29.36-.687-44.662-.292 3.675 2.735 5.941 5.506 5.895 9.542a10.4 10.4 0 0 1-3.026 7.282c-4.247 4.415-12.574 4.384-17.535.01-4.757-4.194-4.332-10.188 1.352-17.094-4.715-.385-6.948-3.573-8.152-7.483-1.35-4.377-2.225-8.9-3.363-13.346-2.418-9.437-5.097-18.814-7.264-28.309-3.714-16.277-7.118-32.62-10.648-48.938-.71-3.286-1.471-6.563-2.07-9.87a3.37 3.37 0 0 0-2.49-2.803c-5.262-1.936-10.497-3.944-15.728-5.96a69 69 0 0 1-6.513-2.714C.717 6.276-.035 4.346.831 2.556c.82-1.69 2.435-2.21 4.952-1.405 5.234 1.674 10.44 3.432 15.664 5.136 2.56.834 5.114 1.678 7.698 2.42 2.941.843 4.836 2.552 5.604 5.626 1.904 7.608 3.939 15.183 5.913 22.775.335 1.285.652 2.576 1.019 4.03 3.027 0 5.923.028 8.819-.008 3.367-.043 6.735-.212 10.102-.197 2.897.015 4.47 1.11 4.595 2.94.13 1.867-1.627 3.375-4.56 3.457-4.262.12-8.532-.016-12.799-.039-1.434-.007-2.869 0-4.86 0l11.45 44.881h69.258l19.57-46.283c-3.741-.174-7.041-.325-10.343-.48-1.793-.085-3.602-.053-5.375-.29-2.469-.328-3.609-1.482-3.581-3.273.027-1.694.952-2.765 3.421-2.966 4.244-.346 8.514-.442 12.774-.484 2.124-.022 4.258.507 6.376.436 4.129-.14 5.749 2.832 5.582 7.813a10.8 10.8 0 0 1-1.172 3.836c-3.526 7.876-7.161 15.7-10.657 23.589-2.724 6.147-5.41 12.317-7.887 18.566a21.2 21.2 0 0 1-4.919 7.106 5.8 5.8 0 0 1-2.947 1.444c-1.872.342-3.773.5-5.677.468-17.852-.353-35.705-.773-53.553-1.15-2.89-.057-5.785-.004-9.002-.004m71.354 36.87c-.03-1.694-2.228-3.789-4.041-3.854-1.392-.05-2.85 1.735-2.875 3.518-.023 1.73 1.588 3.042 3.698 3.011 1.87-.027 3.244-1.17 3.218-2.675m-61.003 1.813c.776-.597 1.894-1.055 2.315-1.872.623-1.213 0-2.388-1.215-3.085a11.5 11.5 0 0 0-2.108-.997c-1.221-.403-2.44-.586-3.099.951-.638 1.488-.304 3.095.985 3.833q1.517.705 3.122 1.17"/><path fill="#000" d="M89.508 57.172c0-1.807.022-2.917-.004-4.024q-.534-22.878-1.07-45.754a18.3 18.3 0 0 1 .112-3.356c.258-1.575 1.149-2.703 2.876-2.798a2.96 2.96 0 0 1 3.267 2.315c.316.957.53 1.945.636 2.947.496 7.608.926 15.22 1.397 22.83q.715 11.584 1.48 23.164c.057.874.297 1.735.558 3.185 1.542-1.766 2.779-3.162 3.992-4.577 1.899-2.214 3.78-4.442 5.674-6.66.292-.34.598-.67.919-.98 2.063-1.974 4.407-2.317 5.986-.887 1.748 1.583 1.664 4.035-.353 6.27-4.732 5.245-9.522 10.439-14.276 15.664-.905.993-1.762 2.029-2.63 3.053-1.904 2.243-3.909 2.72-6.568 1.484a13.4 13.4 0 0 1-2.316-1.358c-6.417-4.747-12.504-9.873-17.749-15.918a13.7 13.7 0 0 1-2.016-3.438 3.046 3.046 0 0 1 .965-3.92 4.84 4.84 0 0 1 3.74-.44c1.386.512 2.545 1.744 3.686 2.792 3.3 3.03 6.537 6.131 9.818 9.185q.897.673 1.876 1.221"/></svg>
